img/404.svg

<svg width="368" height="228" viewBox="0 0 368 228" fill="none" xmlns="http://www.w3.org/2000/svg">
<path d="M69.2723 3.0653L37.3228 156.768H62.3015V101.009H95.8485V156.768H110.371V190.195H95.8485V225.081H62.3015V190.195H0V166.548L33.9826 3.0653H69.2723Z" fill="#0E3F96"/>
<path d="M133.171 62.0359C133.171 53.5698 133.801 45.5903 135.059 38.0973C136.415 30.507 138.932 23.8899 142.611 18.2458C146.29 12.6018 151.47 8.17414 158.15 4.96287C164.927 1.65429 173.689 0 184.436 0C195.279 0 204.041 1.65429 210.721 4.96287C217.499 8.27145 222.727 12.7478 226.406 18.3918C230.182 24.0359 232.699 30.6044 233.957 38.0973C235.216 45.5903 235.845 53.5211 235.845 61.8899V165.964C235.845 174.43 235.168 182.458 233.812 190.049C232.554 197.542 230.036 204.11 226.26 209.754C222.581 215.398 217.402 219.875 210.721 223.183C204.041 226.394 195.279 228 184.436 228C173.495 228 164.685 226.346 158.005 223.037C151.324 219.729 146.145 215.252 142.466 209.608C138.787 203.964 136.318 197.396 135.059 189.903C133.801 182.41 133.171 174.479 133.171 166.11V62.0359ZM184.436 194.428C188.502 194.428 191.697 193.649 194.021 192.092C196.344 190.535 198.038 188.443 199.103 185.816C200.168 183.188 200.798 180.172 200.991 176.766C201.282 173.262 201.427 169.662 201.427 165.964V62.0359C201.427 58.4353 201.33 54.9321 201.137 51.5262C200.943 48.023 200.314 44.9577 199.249 42.3303C198.184 39.6056 196.489 37.4648 194.166 35.9078C191.842 34.2535 188.599 33.4264 184.436 33.4264C180.369 33.4264 177.174 34.2049 174.851 35.7618C172.624 37.3188 170.978 39.411 169.913 42.0384C168.848 44.6658 168.17 47.7311 167.88 51.2343C167.686 54.6402 167.59 58.2407 167.59 62.0359V165.964C167.59 169.565 167.686 173.068 167.88 176.474C168.074 179.88 168.703 182.945 169.768 185.67C170.833 188.297 172.479 190.438 174.706 192.092C177.029 193.649 180.273 194.428 184.436 194.428Z" fill="#0E3F96"/>
<path d="M326.901 3.0653L294.952 156.768H319.931V101.009H353.477V156.768H368V190.195H353.477V225.081H319.931V190.195H257.629V166.548L291.612 3.0653H326.901Z" fill="#0E3F96"/>
<path fill-rule="evenodd" clip-rule="evenodd" d="M133.171 62.0359C133.171 53.5698 133.801 45.5903 135.059 38.0973C136.415 30.507 138.932 23.8899 142.611 18.2458C146.29 12.6018 151.47 8.17414 158.15 4.96287C164.927 1.65429 173.689 0 184.436 0C195.279 0 204.041 1.65429 210.722 4.96287C217.499 8.27145 222.727 12.7478 226.406 18.3918C230.182 24.0359 232.699 30.6044 233.958 38.0973C235.216 45.5903 235.845 53.5211 235.845 61.8899V155.518C226.242 160.701 215.313 164.856 201.425 166.765C201.426 166.498 201.427 166.232 201.427 165.964V62.0359C201.427 58.4353 201.33 54.9321 201.137 51.5262C200.943 48.023 200.314 44.9577 199.249 42.3303C198.184 39.6056 196.489 37.4648 194.166 35.9078C191.842 34.2535 188.599 33.4264 184.436 33.4264C180.37 33.4264 177.175 34.2049 174.851 35.7618C172.624 37.3188 170.978 39.411 169.913 42.0384C168.848 44.6658 168.171 47.7311 167.88 51.2343C167.687 54.6402 167.59 58.2407 167.59 62.0359V165.964C167.59 166.263 167.59 166.56 167.592 166.857C152.612 164.811 142.166 159.942 133.171 153.943V62.0359ZM95.8486 126.966V101.009H62.3017V116.042C76.4051 118.294 87.0477 122.232 95.8486 126.966ZM46.1432 114.336L69.2724 3.0653H33.9828L10.6479 115.324C17.6394 114.471 25.3748 114 34.0002 114C38.272 114 42.3132 114.115 46.1432 114.336ZM353.478 115.32V101.009H319.931V114.687C324.324 114.24 329 114 334 114C340.999 114 347.462 114.469 353.478 115.32ZM303.076 117.684L326.901 3.0653H291.612L263.752 137.094C274.984 129.284 286.889 121.914 303.076 117.684Z" fill="#0E3F96"/>
</svg>

<svg width="368" height="228" fill="none" xmlns="http://www.w3.org/2000/svg"><path d="M69.272 3.065l-31.95 153.703h24.98v-55.759h33.547v55.759h14.522v33.427H95.849v34.886H62.3v-34.886H0v-23.647L33.983 3.065h35.29zm63.899 58.971c0-8.466.63-16.446 1.888-23.939 1.356-7.59 3.873-14.207 7.552-19.851 3.679-5.644 8.859-10.072 15.539-13.283C164.927 1.654 173.689 0 184.436 0c10.843 0 19.605 1.654 26.285 4.963 6.778 3.308 12.006 7.785 15.685 13.429 3.776 5.644 6.293 12.212 7.551 19.705 1.259 7.493 1.888 15.424 1.888 23.793v104.074c0 8.466-.677 16.494-2.033 24.085-1.258 7.493-3.776 14.061-7.552 19.705-3.679 5.644-8.858 10.121-15.539 13.429-6.68 3.211-15.442 4.817-26.285 4.817-10.941 0-19.751-1.654-26.431-4.963-6.681-3.308-11.86-7.785-15.539-13.429-3.679-5.644-6.148-12.212-7.407-19.705-1.258-7.493-1.888-15.424-1.888-23.793V62.036zm51.265 132.392c4.066 0 7.261-.779 9.585-2.336 2.323-1.557 4.017-3.649 5.082-6.276 1.065-2.628 1.695-5.644 1.888-9.05.291-3.504.436-7.104.436-10.802V62.036c0-3.6-.097-7.104-.29-10.51-.194-3.503-.823-6.568-1.888-9.196-1.065-2.724-2.76-4.865-5.083-6.422-2.324-1.654-5.567-2.482-9.73-2.482-4.067 0-7.262.779-9.585 2.336-2.227 1.557-3.873 3.649-4.938 6.276-1.065 2.628-1.743 5.693-2.033 9.196-.194 3.406-.29 7.007-.29 10.802v103.928c0 3.601.096 7.104.29 10.51.194 3.406.823 6.471 1.888 9.196 1.065 2.627 2.711 4.768 4.938 6.422 2.323 1.557 5.567 2.336 9.73 2.336zM326.901 3.065l-31.949 153.703h24.979v-55.759h33.546v55.759H368v33.427h-14.523v34.886h-33.546v-34.886h-62.302v-23.647L291.612 3.065h35.289z" fill="#0E3F96"/><path fill-rule="evenodd" clip-rule="evenodd" d="M133.171 62.036c0-8.466.63-16.446 1.888-23.939 1.356-7.59 3.873-14.207 7.552-19.851 3.679-5.644 8.859-10.072 15.539-13.283C164.927 1.654 173.689 0 184.436 0c10.843 0 19.605 1.654 26.286 4.963 6.777 3.308 12.005 7.785 15.684 13.429 3.776 5.644 6.293 12.212 7.552 19.705 1.258 7.493 1.887 15.424 1.887 23.793v93.628c-9.603 5.183-20.532 9.338-34.42 11.247l.002-.801V62.036c0-3.6-.097-7.104-.29-10.51-.194-3.503-.823-6.568-1.888-9.196-1.065-2.724-2.76-4.865-5.083-6.422-2.324-1.654-5.567-2.482-9.73-2.482-4.066 0-7.261.779-9.585 2.336-2.227 1.557-3.873 3.649-4.938 6.276-1.065 2.628-1.742 5.693-2.033 9.196a191.29 191.29 0 00-.29 10.802v103.928c0 .299 0 .596.002.893-14.98-2.046-25.426-6.915-34.421-12.914V62.036zm-37.322 64.93v-25.957H62.302v15.033c14.103 2.252 24.746 6.19 33.547 10.924zm-49.706-12.63l23.13-111.27h-35.29L10.648 115.323C17.639 114.471 25.375 114 34 114c4.272 0 8.313.115 12.143.336zm307.335.984v-14.311h-33.547v13.678C324.324 114.24 329 114 334 114c6.999 0 13.462.469 19.478 1.32zm-50.402 2.364L326.901 3.065h-35.289l-27.86 134.029c11.232-7.81 23.137-15.18 39.324-19.41z" fill="#0E3F96"/></svg>
